packages/core/src/svgs/brn.svg

<svg width="24" height="24" viewBox="0 0 24 24" fill="none" xmlns="http://www.w3.org/2000/svg">
<g clip-path="url(#clip0_31_7357)">
<path d="M0 0H24V24H0V0Z" fill="url(#paint0_linear_31_7357)"/>
<path d="M8.14282 13.4359L7.52568 12.4287L5.14282 16.4916L10.7143 18.8573L9.85711 17.5716L6.58711 16.1487L8.14282 13.4359ZM15.8571 13.4359L16.4743 12.4287L18.8571 16.4916L13.2857 18.8573L14.1428 17.5716L17.4128 16.1487L15.8571 13.4359Z" fill="#0EEBFF"/>
<path d="M10.7144 11.1429L12.0001 9L13.2858 11.1429L12.8101 12.2014L13.2858 13.2857L12.0001 15.4286L10.7144 13.2857L11.1901 12.2014L10.7144 11.1429ZM12.0001 14.5714L12.7586 13.2857L12.5444 12.7029L12.4286 12.8571V11.9229L12.7029 11.1429L12.0001 9.85714L11.2972 11.1429L11.5715 11.9229V12.8571L11.4558 12.7029L11.2415 13.2857L12.0001 14.5714Z" fill="url(#paint1_linear_31_7357)"/>
<path d="M9 10.1445L12 5.14307L15 10.1445L14.4343 11.1431L12 7.06307L9.56571 11.1431L9 10.1445Z" fill="url(#paint2_linear_31_7357)"/>
<path d="M5.14282 7.28592L12 18.8574L18.8571 7.28592L13.4228 5.14307L14.1428 6.42878L17.4043 7.6245L12 16.8602L6.59568 7.62878L9.85711 6.42878L10.5771 5.14307L5.14282 7.28592Z" fill="url(#paint3_linear_31_7357)"/>
</g>
<defs>
<linearGradient id="paint0_linear_31_7357" x1="3" y1="2.57143" x2="21.2143" y2="21.6429" gradientUnits="userSpaceOnUse">
<stop stop-color="#5E2EC2"/>
<stop offset="1" stop-color="#1D1350"/>
</linearGradient>
<linearGradient id="paint1_linear_31_7357" x1="12.0001" y1="9" x2="12.0001" y2="15.4286" gradientUnits="userSpaceOnUse">
<stop stop-color="#19F1FE"/>
<stop offset="0.5" stop-color="#7F6EFB"/>
<stop offset="1" stop-color="#8450FD"/>
</linearGradient>
<linearGradient id="paint2_linear_31_7357" x1="12" y1="5.14307" x2="12" y2="11.1431" gradientUnits="userSpaceOnUse">
<stop offset="0.18" stop-color="#3636E5"/>
<stop offset="1" stop-color="#1CA4FD"/>
</linearGradient>
<linearGradient id="paint3_linear_31_7357" x1="12" y1="5.14307" x2="12" y2="18.8574" gradientUnits="userSpaceOnUse">
<stop stop-color="#C63FFF"/>
<stop offset="0.49" stop-color="#6D5FFE"/>
<stop offset="1" stop-color="#268EF5"/>
</linearGradient>
<clipPath id="clip0_31_7357">
<rect width="24" height="24" fill="white"/>
</clipPath>
</defs>
</svg>

<svg xmlns="http://www.w3.org/2000/svg" width="24" height="24" fill="none" viewBox="0 0 24 24"><g clip-path="url(#a)"><path fill="url(#b)" d="M0 0h24v24H0z"/><path fill="#0EEBFF" d="m8.143 13.436-.617-1.007-2.383 4.063 5.571 2.365-.857-1.285-3.27-1.423zm7.714 0 .617-1.007 2.383 4.063-5.571 2.365.857-1.285 3.27-1.423z"/><path fill="url(#c)" d="M10.714 11.143 12 9l1.286 2.143-.476 1.058.476 1.085L12 15.429l-1.286-2.143.476-1.085zM12 14.57l.759-1.285-.215-.583-.115.154v-.934l.274-.78L12 9.857l-.703 1.286.274.78v.934l-.115-.154-.214.583z"/><path fill="url(#d)" d="m9 10.145 3-5.002 3 5.002-.566.998L12 7.063l-2.434 4.08z"/><path fill="url(#e)" d="M5.143 7.286 12 18.857l6.857-11.571-5.434-2.143.72 1.286 3.261 1.196L12 16.86 6.596 7.63l3.261-1.2.72-1.286z"/></g><defs><linearGradient id="b" x1="3" x2="21.214" y1="2.571" y2="21.643" gradientUnits="userSpaceOnUse"><stop stop-color="#5E2EC2"/><stop offset="1" stop-color="#1D1350"/></linearGradient><linearGradient id="c" x1="12" x2="12" y1="9" y2="15.429" gradientUnits="userSpaceOnUse"><stop stop-color="#19F1FE"/><stop offset=".5" stop-color="#7F6EFB"/><stop offset="1" stop-color="#8450FD"/></linearGradient><linearGradient id="d" x1="12" x2="12" y1="5.143" y2="11.143" gradientUnits="userSpaceOnUse"><stop offset=".18" stop-color="#3636E5"/><stop offset="1" stop-color="#1CA4FD"/></linearGradient><linearGradient id="e" x1="12" x2="12" y1="5.143" y2="18.857" gradientUnits="userSpaceOnUse"><stop stop-color="#C63FFF"/><stop offset=".49" stop-color="#6D5FFE"/><stop offset="1" stop-color="#268EF5"/></linearGradient><clipPath id="a"><path fill="#fff" d="M0 0h24v24H0z"/></clipPath></defs></svg>
